public/images/2026/logo-white.svg

<svg fill="none" height="32" viewBox="0 0 276 32" width="276" xmlns="http://www.w3.org/2000/svg"><g clip-rule="evenodd" fill="#fff" fill-rule="evenodd"><path d="m10.1488 19.6634h-2.11426v7.2384h-7.53454v-21.81037h11.8312c2.9076 0 5.1037.61284 6.5915 1.83512s2.2301 3.04378 2.2301 5.46795c0 3.1935-1.3108 5.3419-3.9324 6.445l5.1546 8.0623h-8.3618l-3.8678-7.2384zm-2.11426-5.0559h2.74416c.9703 0 1.6581-.1498 2.0667-.446.4085-.2962.6128-.8205.6128-1.5696 0-.749-.2043-1.2461-.6128-1.5525-.4086-.3098-1.0964-.463-2.0667-.463h-2.74416z"/><path d="m44.2194 17.5151c0 6.4757-3.5136 9.7169-10.5408 9.7169-7.0273 0-10.5409-3.2378-10.5409-9.7169v-12.42367h7.732v13.01947c0 1.1031.2349 1.9339.7116 2.4956.4732.5618 1.1746.841 2.0973.841.9226 0 1.6308-.2792 2.1143-.841.4834-.5617.7286-1.3925.7286-2.4956v-13.01947h7.6979z"/><path d="m46.8615 5.09143h12.4917c2.7544.02383 4.804.5141 6.1455 1.47082 1.3448.95671 2.0155 2.4071 2.0155 4.34435 0 1.3449-.4119 2.4616-1.2393 3.3536-.8273.892-2.053 1.4504-3.6838 1.6683v.0341c1.8487.1974 3.2276.749 4.1298 1.6512.9023.9057 1.3551 2.0837 1.3551 3.5375 0 1.9168-.6503 3.3536-1.9509 4.3137s-3.2719 1.4368-5.9139 1.4368h-13.3497zm10.7383 8.46057c1.3653 0 2.0496-.5277 2.0496-1.5865 0-1.0589-.6843-1.5866-2.0496-1.5866h-3.3706v3.1731zm.5618 8.3279c1.3653 0 2.0496-.538 2.0496-1.6206 0-1.0827-.6843-1.5526-2.0496-1.5526h-3.9324v3.1732z"/><path d="m83.9384 19.3332v7.5686h-7.698v-7.5686l-7.6367-14.24177h7.6673l2.3152 4.99127 1.5526 3.963 1.5525-3.963 2.3118-4.99127h7.5686z"/><path d="m101.619 27.232c-2.2915 0-4.2696-.4392-5.9311-1.321-1.6649-.8818-2.9416-2.1654-3.8337-3.8507-.892-1.6853-1.338-3.7077-1.338-6.0637s.446-4.3784 1.338-6.06373c.8921-1.68531 2.1688-2.96887 3.8337-3.85068s3.6396-1.32102 5.9311-1.32102c2.557 0 4.736.54475 6.544 1.63425 1.804 1.08949 2.928 2.74757 3.37 4.97418l-6.608 2.5774c-.177-1.3449-.497-2.2471-.96-2.7101-.463-.4631-1.178-.6946-2.149-.6946-1.144 0-2.005.4426-2.577 1.321-.572.8818-.858 2.2573-.858 4.1299s.2758 3.2515.8273 4.1299c.5516.8818 1.3997 1.321 2.5437 1.321 1.035 0 1.784-.2315 2.247-.6946.463-.463.759-1.2223.892-2.2811l6.806 1.75c-1.124 4.6712-4.484 7.0068-10.078 7.0068"/><path d="m131.972 7.71984c1.95 1.9713 2.924 4.73246 2.924 8.27676s-.974 6.3055-2.924 8.2768c-1.951 1.9713-4.665 2.9586-8.148 2.9586-2.291 0-4.269-.4392-5.931-1.321-1.665-.8818-2.941-2.1654-3.833-3.8507s-1.339-3.7077-1.339-6.0637.447-4.3784 1.339-6.06373c.892-1.68531 2.168-2.96887 3.833-3.85068s3.64-1.32102 5.931-1.32102c3.48 0 6.197.98736 8.148 2.95867zm-10.609 4.12986c-.518.8716-.777 2.2539-.777 4.1469s.259 3.2787.777 4.1469c.517.8716 1.338 1.304 2.461 1.304 1.124 0 1.937-.4358 2.445-1.304.507-.8716.759-2.2539.759-4.1469s-.255-3.2753-.759-4.1469c-.508-.8682-1.321-1.304-2.445-1.304-1.123 0-1.944.4358-2.461 1.304z"/><path d="m158.688 26.9018h-8.328l-5.223-9.9144-1.188-2.6761h-.068l.133 4.4942v8.0963h-6.673v-21.81037h8.328l5.219 9.94847 1.188 2.642h.068l-.133-4.4942v-8.09627h6.677z"/><path d="m169.525 10.7432v3.0404h8.393v5.6483h-8.393v7.4699h-7.698v-21.81037h18.076v5.65177z"/><path d="m182.402 7.57003v-2.48541h17.813v2.48541h-7.586v19.33177h-2.645v-19.33177z"/><path d="m204.665 26.9018v-21.81718h2.645v9.52288h11.828v-9.52288h2.645v21.81718h-2.645v-9.8123h-11.828v9.8123z"/><path d="m239.236 2.1566h-1.951c-.385 0-.695.07831-.923.23492-.228.15662-.408.37451-.541.65029s-.218.5822-.252.91927c-.037.33706-.055.68434-.055 1.04523v6.34289c0 .8171-.119 1.5083-.36 2.0735-.242.5651-.532 1.0282-.869 1.3891s-.681.6298-1.028.8103c-.35.1804-.633.2962-.848.3439v.0715c.218.0238.501.1157.848.2689.347.1566.691.4086 1.028.7559.337.3472.627.8171.869 1.4061.241.589.36 1.3278.36 2.2164v6.3089c0 .3609.018.7082.055 1.0452.037.3371.119.6367.252.9023.133.2655.313.48.541.6503.228.1668.538.2519.923.2519h1.951v2.162h-2.53c-.456 0-.909-.0953-1.355-.2894s-.848-.4801-1.209-.8648c-.36-.3847-.657-.858-.885-1.4232-.228-.5651-.344-1.2086-.344-1.927v-6.3055c0-.6503-.092-1.2256-.272-1.7295s-.415-.9363-.705-1.2972c-.289-.3609-.619-.6299-.994-.8103-.374-.1805-.752-.269-1.137-.269v-2.162c.385 0 .763-.0953 1.137-.2894.375-.1906.705-.463.994-.8103.29-.3473.525-.7762.705-1.2801s.272-1.0691.272-1.6922v-6.35649c0-.72179.119-1.36527.361-1.92704.239-.56518.542-1.03843.902-1.42316.361-.384724.763-.670717 1.209-.864784.446-.1906615.885-.28939709 1.318-.28939709h2.529v2.16197109z"/><path d="m268.533-.00537109c.432 0 .872.09533089 1.318.28939709.446.194067.847.480059 1.208.864784.361.38473.661.85798.903 1.42316.241.56517.36 1.20866.36 1.92704v6.34289c0 .6265.092 1.1883.273 1.6921.18.5039.415.9329.705 1.2802.289.3473.619.6197.994.8103.374.1907.752.2894 1.137.2894v2.162c-.385 0-.766.0885-1.137.269-.375.1804-.705.4494-.994.8103-.29.3609-.525.7933-.705 1.2971-.181.5039-.273 1.0827-.273 1.7296v6.3055c0 .7218-.115 1.3618-.343 1.927-.229.5652-.525 1.0384-.886 1.4232-.361.3847-.766.6707-1.208.8648-.446.1906-.899.2894-1.355.2894h-2.53v-2.162h1.951c.385 0 .691-.0851.923-.252.228-.1668.401-.3847.524-.6502.119-.2656.204-.5652.252-.9023.047-.337.071-.6843.071-1.0452v-6.3089c0-.8886.119-1.6274.361-2.2164s.528-1.0555.868-1.4062c.337-.3472.681-.5992 1.032-.7558.347-.1566.633-.2451.848-.269v-.0715c-.218-.0476-.501-.1634-.848-.3438-.351-.1805-.695-.4495-1.032-.8103-.337-.3609-.626-.824-.868-1.3892-.242-.5651-.361-1.2563-.361-2.0734v-6.33269c0-.3609-.024-.70818-.071-1.04524-.048-.33706-.133-.64348-.252-.91926s-.296-.49368-.524-.65029c-.229-.15662-.538-.23493-.923-.23493h-1.951v-2.15856109z"/><path d="m259.756 20.089c-1.764 1.4062-3.875 2.179-5.931 2.179-.109 0-.218-.0068-.33-.0136.912 1.0997 2.141 2.0122 3.581 2.608 2.387.9907 4.981.9669 7.028-.0443-.671-1.9781-2.251-3.6941-4.348-4.7325"/><path d="m260.576 19.3604c1.042.5652 1.958 1.2904 2.707 2.1245 1.181-.6707 2.152-1.5763 2.826-2.6216-.913-.9839-2.138-1.7432-3.544-2.1926-.501.9704-1.168 1.8828-1.992 2.6897"/><path d="m251.411 22.268c-2.056 0-4.167-.7729-5.931-2.179-2.097 1.035-3.677 2.751-4.348 4.7291 2.046 1.0112 4.637 1.035 7.027.0443 1.441-.5958 2.67-1.5083 3.582-2.608-.109.0034-.218.0136-.33.0136z"/><path d="m252.623 22.7889c-.565.7048-1.243 1.3415-2.012 1.8862.534.9499 1.226 1.767 2.029 2.3867.797-.6197 1.481-1.4266 2.016-2.3697-.78-.5481-1.461-1.1916-2.033-1.9066"/><path d="m241.953 21.4849c.752-.8341 1.668-1.5593 2.706-2.1245-.823-.8069-1.491-1.7193-1.991-2.6897-1.406.4494-2.632 1.2087-3.545 2.1926.675 1.0453 1.645 1.9475 2.826 2.6216"/><path d="m260.951 12.34-7.773 8.876c2.267.2111 4.698-.698 6.574-2.4752 1.876-1.7807 2.908-4.1571 2.816-6.4383-.534-.0476-1.076-.034-1.621.0375"/><path d="m252.64 17.321 2.291-6.8468h-4.582z"/><path d="m249.269 10.4742h-3.735v-1.02138h3.395l-1.175-3.51022.971-.32345 1.106 3.31275 2.809-3.60895 2.805 3.61235 1.107-3.31274.97.32344-1.171 3.50682h3.391v1.02138h-3.735l-3.227 9.6489 8.794-10.0472-4.29-5.14449h-9.288l-4.293 5.14449 8.794 10.0472z"/><path d="m250.723 9.45282h3.83l-1.913-2.46499z"/><path d="m244.333 12.3434c-.559-.0749-1.114-.0919-1.662-.0409-.092 2.2778.943 4.6576 2.816 6.4383 1.876 1.7772 4.307 2.6897 6.574 2.4752 0-.0137 0-.0273 0-.0443z"/></g></svg>

<svg width="276" height="32" viewBox="0 0 276 32" fill="none" xmlns="http://www.w3.org/2000/svg">
<path fill-rule="evenodd" clip-rule="evenodd" d="M10.1488 19.6634H8.03454V26.9018H0.5V5.09143H12.3312C15.2388 5.09143 17.4349 5.70427 18.9227 6.92655C20.4105 8.14883 21.1528 9.97033 21.1528 12.3945C21.1528 15.588 19.842 17.7364 17.2204 18.8395L22.375 26.9018H14.0132L10.1454 19.6634H10.1488ZM8.03454 14.6075H10.7787C11.749 14.6075 12.4368 14.4577 12.8454 14.1615C13.2539 13.8653 13.4582 13.341 13.4582 12.5919C13.4582 11.8429 13.2539 11.3458 12.8454 11.0394C12.4368 10.7296 11.749 10.5764 10.7787 10.5764H8.03454V14.6075Z" fill="white"/>
<path fill-rule="evenodd" clip-rule="evenodd" d="M44.2194 17.5151C44.2194 23.9908 40.7058 27.232 33.6786 27.232C26.6513 27.232 23.1377 23.9942 23.1377 17.5151V5.09143H30.8697V18.1109C30.8697 19.214 31.1046 20.0448 31.5813 20.6065C32.0545 21.1683 32.7559 21.4475 33.6786 21.4475C34.6012 21.4475 35.3094 21.1683 35.7929 20.6065C36.2763 20.0448 36.5215 19.214 36.5215 18.1109V5.09143H44.2194V17.5151Z" fill="white"/>
<path fill-rule="evenodd" clip-rule="evenodd" d="M46.8615 5.09143H59.3532C62.1076 5.11526 64.1572 5.60553 65.4987 6.56225C66.8435 7.51896 67.5142 8.96935 67.5142 10.9066C67.5142 12.2515 67.1023 13.3682 66.2749 14.2602C65.4476 15.1522 64.2219 15.7106 62.5911 15.9285V15.9626C64.4398 16.16 65.8187 16.7116 66.7209 17.6138C67.6232 18.5195 68.076 19.6975 68.076 21.1513C68.076 23.0681 67.4257 24.5049 66.1251 25.465C64.8245 26.4251 62.8532 26.9018 60.2112 26.9018H46.8615V5.09143ZM57.5998 13.552C58.9651 13.552 59.6494 13.0243 59.6494 11.9655C59.6494 10.9066 58.9651 10.3789 57.5998 10.3789H54.2292V13.552H57.5998ZM58.1616 21.8799C59.5269 21.8799 60.2112 21.3419 60.2112 20.2593C60.2112 19.1766 59.5269 18.7067 58.1616 18.7067H54.2292V21.8799H58.1616Z" fill="white"/>
<path fill-rule="evenodd" clip-rule="evenodd" d="M83.9384 19.3332V26.9018H76.2404V19.3332L68.6037 5.09143H76.271L78.5862 10.0827L80.1388 14.0457L81.6913 10.0827L84.0031 5.09143H91.5717L83.9384 19.3332Z" fill="white"/>
<path fill-rule="evenodd" clip-rule="evenodd" d="M101.619 27.232C99.3275 27.232 97.3494 26.7928 95.6879 25.911C94.023 25.0292 92.7463 23.7456 91.8542 22.0603C90.9622 20.375 90.5162 18.3526 90.5162 15.9966C90.5162 13.6406 90.9622 11.6182 91.8542 9.93287C92.7463 8.24756 94.023 6.964 95.6879 6.08219C97.3528 5.20038 99.3275 4.76117 101.619 4.76117C104.176 4.76117 106.355 5.30592 108.163 6.39542C109.967 7.48491 111.091 9.14299 111.533 11.3696L104.925 13.947C104.748 12.6021 104.428 11.6999 103.965 11.2369C103.502 10.7738 102.787 10.5423 101.816 10.5423C100.672 10.5423 99.811 10.9849 99.239 11.8633C98.667 12.7451 98.381 14.1206 98.381 15.9932C98.381 17.8658 98.6568 19.2447 99.2083 20.1231C99.7599 21.0049 100.608 21.4441 101.752 21.4441C102.787 21.4441 103.536 21.2126 103.999 20.7495C104.462 20.2865 104.758 19.5272 104.891 18.4684L111.697 20.2184C110.573 24.8896 107.213 27.2252 101.619 27.2252" fill="white"/>
<path fill-rule="evenodd" clip-rule="evenodd" d="M131.972 7.71984C133.922 9.69114 134.896 12.4523 134.896 15.9966C134.896 19.5409 133.922 22.3021 131.972 24.2734C130.021 26.2447 127.307 27.232 123.824 27.232C121.533 27.232 119.555 26.7928 117.893 25.911C116.228 25.0292 114.952 23.7456 114.06 22.0603C113.168 20.375 112.721 18.3526 112.721 15.9966C112.721 13.6406 113.168 11.6182 114.06 9.93287C114.952 8.24756 116.228 6.964 117.893 6.08219C119.558 5.20038 121.533 4.76117 123.824 4.76117C127.304 4.76117 130.021 5.74853 131.972 7.71984ZM121.363 11.8497C120.845 12.7213 120.586 14.1036 120.586 15.9966C120.586 17.8896 120.845 19.2753 121.363 20.1435C121.88 21.0151 122.701 21.4475 123.824 21.4475C124.948 21.4475 125.761 21.0117 126.269 20.1435C126.776 19.2719 127.028 17.8896 127.028 15.9966C127.028 14.1036 126.773 12.7213 126.269 11.8497C125.761 10.9815 124.948 10.5457 123.824 10.5457C122.701 10.5457 121.88 10.9815 121.363 11.8497Z" fill="white"/>
<path fill-rule="evenodd" clip-rule="evenodd" d="M158.688 26.9018H150.36L145.137 16.9874L143.949 14.3113H143.881L144.014 18.8055V26.9018H137.341V5.09143H145.669L150.888 15.0399L152.076 17.6819H152.144L152.011 13.1877V5.09143H158.688V26.9018Z" fill="white"/>
<path fill-rule="evenodd" clip-rule="evenodd" d="M169.525 10.7432V13.7836H177.918V19.4319H169.525V26.9018H161.827V5.09143H179.903V10.7432H169.525Z" fill="white"/>
<path fill-rule="evenodd" clip-rule="evenodd" d="M182.402 7.57003V5.08462H200.215V7.57003H192.629V26.9018H189.984V7.57003H182.402Z" fill="white"/>
<path fill-rule="evenodd" clip-rule="evenodd" d="M204.665 26.9018V5.08462H207.31V14.6075H219.138V5.08462H221.783V26.9018H219.138V17.0895H207.31V26.9018H204.665Z" fill="white"/>
<path fill-rule="evenodd" clip-rule="evenodd" d="M239.236 2.1566H237.285C236.9 2.1566 236.59 2.23491 236.362 2.39152C236.134 2.54814 235.954 2.76603 235.821 3.04181C235.688 3.31759 235.603 3.62401 235.569 3.96108C235.532 4.29814 235.514 4.64542 235.514 5.00631V11.3492C235.514 12.1663 235.395 12.8575 235.154 13.4227C234.912 13.9878 234.622 14.4509 234.285 14.8118C233.948 15.1727 233.604 15.4416 233.257 15.6221C232.907 15.8025 232.624 15.9183 232.409 15.966V16.0375C232.627 16.0613 232.91 16.1532 233.257 16.3064C233.604 16.463 233.948 16.715 234.285 17.0623C234.622 17.4095 234.912 17.8794 235.154 18.4684C235.395 19.0574 235.514 19.7962 235.514 20.6848V26.9937C235.514 27.3546 235.532 27.7019 235.569 28.0389C235.606 28.376 235.688 28.6756 235.821 28.9412C235.954 29.2067 236.134 29.4212 236.362 29.5915C236.59 29.7583 236.9 29.8434 237.285 29.8434H239.236V32.0054H236.706C236.25 32.0054 235.797 31.9101 235.351 31.716C234.905 31.5219 234.503 31.2359 234.142 30.8512C233.782 30.4665 233.485 29.9932 233.257 29.428C233.029 28.8629 232.913 28.2194 232.913 27.501V21.1955C232.913 20.5452 232.821 19.9699 232.641 19.466C232.461 18.9621 232.226 18.5297 231.936 18.1688C231.647 17.8079 231.317 17.5389 230.942 17.3585C230.568 17.178 230.19 17.0895 229.805 17.0895V14.9275C230.19 14.9275 230.568 14.8322 230.942 14.6381C231.317 14.4475 231.647 14.1751 231.936 13.8278C232.226 13.4805 232.461 13.0516 232.641 12.5477C232.821 12.0438 232.913 11.4786 232.913 10.8555V4.49901C232.913 3.77722 233.032 3.13374 233.274 2.57197C233.513 2.00679 233.816 1.53354 234.176 1.14881C234.537 0.764086 234.939 0.478093 235.385 0.284026C235.831 0.0933645 236.27 -0.00537109 236.703 -0.00537109H239.232V2.1566H239.236Z" fill="white"/>
<path fill-rule="evenodd" clip-rule="evenodd" d="M268.533 -0.00537109C268.965 -0.00537109 269.405 0.0899598 269.851 0.284026C270.297 0.478093 270.698 0.764085 271.059 1.14881C271.42 1.53354 271.72 2.00679 271.962 2.57197C272.203 3.13714 272.322 3.78063 272.322 4.49901V10.8419C272.322 11.4684 272.414 12.0302 272.595 12.534C272.775 13.0379 273.01 13.4669 273.3 13.8142C273.589 14.1615 273.919 14.4339 274.294 14.6245C274.668 14.8152 275.046 14.9139 275.431 14.9139V17.0759C275.046 17.0759 274.665 17.1644 274.294 17.3449C273.919 17.5253 273.589 17.7943 273.3 18.1552C273.01 18.5161 272.775 18.9485 272.595 19.4523C272.414 19.9562 272.322 20.535 272.322 21.1819V27.4874C272.322 28.2092 272.207 28.8492 271.979 29.4144C271.75 29.9796 271.454 30.4528 271.093 30.8376C270.732 31.2223 270.327 31.5083 269.885 31.7024C269.439 31.893 268.986 31.9918 268.53 31.9918H266V29.8298H267.951C268.336 29.8298 268.642 29.7447 268.874 29.5778C269.102 29.411 269.275 29.1931 269.398 28.9276C269.517 28.662 269.602 28.3624 269.65 28.0253C269.697 27.6883 269.721 27.341 269.721 26.9801V20.6712C269.721 19.7826 269.84 19.0438 270.082 18.4548C270.324 17.8658 270.61 17.3993 270.95 17.0486C271.287 16.7014 271.631 16.4494 271.982 16.2928C272.329 16.1362 272.615 16.0477 272.83 16.0238V15.9523C272.612 15.9047 272.329 15.7889 271.982 15.6085C271.631 15.428 271.287 15.159 270.95 14.7982C270.613 14.4373 270.324 13.9742 270.082 13.409C269.84 12.8439 269.721 12.1527 269.721 11.3356V5.00291C269.721 4.64201 269.697 4.29473 269.65 3.95767C269.602 3.62061 269.517 3.31419 269.398 3.03841C269.279 2.76263 269.102 2.54473 268.874 2.38812C268.645 2.2315 268.336 2.15319 267.951 2.15319H266V-0.00537109H268.533Z" fill="white"/>
<path fill-rule="evenodd" clip-rule="evenodd" d="M259.756 20.089C257.992 21.4952 255.881 22.268 253.825 22.268C253.716 22.268 253.607 22.2612 253.495 22.2544C254.407 23.3541 255.636 24.2666 257.076 24.8624C259.463 25.8531 262.057 25.8293 264.104 24.8181C263.433 22.84 261.853 21.124 259.756 20.0856" fill="white"/>
<path fill-rule="evenodd" clip-rule="evenodd" d="M260.576 19.3604C261.618 19.9256 262.534 20.6508 263.283 21.4849C264.464 20.8142 265.435 19.9086 266.109 18.8633C265.196 17.8794 263.971 17.1201 262.565 16.6707C262.064 17.6411 261.397 18.5535 260.573 19.3604" fill="white"/>
<path fill-rule="evenodd" clip-rule="evenodd" d="M251.411 22.268C249.355 22.268 247.244 21.4951 245.48 20.089C243.383 21.124 241.803 22.84 241.132 24.8181C243.178 25.8293 245.769 25.8531 248.159 24.8624C249.6 24.2666 250.829 23.3541 251.741 22.2544C251.632 22.2578 251.523 22.268 251.411 22.268Z" fill="white"/>
<path fill-rule="evenodd" clip-rule="evenodd" d="M252.623 22.7889C252.058 23.4937 251.38 24.1304 250.611 24.6751C251.145 25.625 251.837 26.4421 252.64 27.0618C253.437 26.4421 254.121 25.6352 254.656 24.6921C253.876 24.144 253.195 23.5005 252.623 22.7855" fill="white"/>
<path fill-rule="evenodd" clip-rule="evenodd" d="M241.953 21.4849C242.705 20.6508 243.621 19.9256 244.659 19.3604C243.836 18.5535 243.168 17.6411 242.668 16.6707C241.262 17.1201 240.036 17.8794 239.123 18.8633C239.798 19.9086 240.768 20.8108 241.949 21.4849" fill="white"/>
<path fill-rule="evenodd" clip-rule="evenodd" d="M260.951 12.34L253.178 21.216C255.445 21.4271 257.876 20.518 259.752 18.7408C261.628 16.9601 262.66 14.5837 262.568 12.3025C262.034 12.2549 261.492 12.2685 260.947 12.34" fill="white"/>
<path fill-rule="evenodd" clip-rule="evenodd" d="M252.64 17.321L254.931 10.4742H250.349L252.64 17.321Z" fill="white"/>
<path fill-rule="evenodd" clip-rule="evenodd" d="M249.269 10.4742H245.534V9.45282H248.929L247.754 5.9426L248.725 5.61915L249.831 8.9319L252.64 5.32295L255.445 8.9353L256.552 5.62256L257.522 5.946L256.351 9.45282H259.742V10.4742H256.007L252.78 20.1231L261.574 10.0759L257.284 4.93141H247.996L243.703 10.0759L252.497 20.1231L249.269 10.4742Z" fill="white"/>
<path fill-rule="evenodd" clip-rule="evenodd" d="M250.723 9.45282H254.553L252.64 6.98783L250.723 9.45282Z" fill="white"/>
<path fill-rule="evenodd" clip-rule="evenodd" d="M244.333 12.3434C243.774 12.2685 243.219 12.2515 242.671 12.3025C242.579 14.5803 243.614 16.9601 245.487 18.7408C247.363 20.518 249.794 21.4305 252.061 21.216C252.061 21.2023 252.061 21.1887 252.061 21.1717L244.333 12.3434Z" fill="white"/>
</svg>
